icons/lines/message-notif.svg

<svg xmlns="http://www.w3.org/2000/svg" width="24" height="24" viewBox="0 0 24 24" fill="none" stroke="currentColor" stroke-width="2" stroke-linecap="round" stroke-linejoin="round" >
  <path d="M22 10V13C22 17 20 19 16 19H15.5C15.19 19 14.89 19.15 14.7 19.4L13.2 21.4C12.54 22.28 11.46 22.28 10.8 21.4L9.3 19.4C9.14 19.18 8.77 19 8.5 19H8C4 19 2 18 2 13V8C2 4 4 2 8 2H14" stroke-miterlimit="10"/>
  <path d="M19.5 7C20.8807 7 22 5.88071 22 4.5C22 3.11929 20.8807 2 19.5 2C18.1193 2 17 3.11929 17 4.5C17 5.88071 18.1193 7 19.5 7Z"/>
  <path d="M15.9965 11H16.0054"/>
  <path d="M11.9955 11H12.0045"/>
  <path d="M7.99451 11H8.00349"/>
  </svg>

<svg xmlns="http://www.w3.org/2000/svg" width="24" height="24" viewBox="0 0 24 24" fill="none" stroke="currentColor" stroke-width="2" stroke-linecap="round" stroke-linejoin="round">
  <path d="M11.996 11h.01" />
  <path d="M15.997 11h.01" />
  <path d="M22 10v3q0 6-6 6h-.5a1 1 0 0 0-.8.4l-1.5 2c-.66.88-1.74.88-2.4 0l-1.5-2c-.16-.22-.53-.4-.8-.4H8c-4 0-6-1-6-6V8q0-6 6-6h6" />
  <path d="M7.995 11h.01" />
  <circle cx="19.5" cy="4.5" r="2.5" />
</svg>
